manage/images/logo.svg

<svg width="367" height="118" xmlns="http://www.w3.org/2000/svg" xml:space="preserve" version="1.1">

 <g>
  <title>Layer 1</title>
  <g id="svg_13">
   <path id="svg_2" fill="#FFFFFF" d="m-0.1,83.96l37.62,-40.79l-35.71,0l0,-13.47l52.93,0c2.81,0 3.95,1.2 3.95,3.85l0,8.06l-37.88,41.27l40.69,0l0,13.35l-57.65,0c-2.81,0 -3.95,-1.2 -3.95,-3.85l0,-8.42z" class="st0"/>
   <path id="svg_3" fill="#FFFFFF" d="m65.69,83.12l21.68,0l0,-39.94l-18.75,0l0,-13.48l31.12,0c3.19,0 4.85,1.56 4.85,4.57l0,48.85l19,0l0,13.11l-57.9,0l0,-13.11zm38,-83.14l0,15.76l-17.6,0l0,-15.76l17.6,0z" class="st0"/>
   <path id="svg_4" fill="#FFFFFF" d="m164.4,85.29c-2.3,4.57 -9.05,8.18 -17.34,8.18c-15.94,0 -26.78,-11.91 -26.78,-30.08l0,-6.02c0,-17.93 10.71,-29.72 26.65,-29.72c8.54,0 14.79,3.61 17.47,8.06l0,-6.01l17.09,0l0,60.64c0,15.4 -12.63,27.31 -31.76,27.31l-19.9,0l0,-13.35l19.39,0c8.54,0 15.18,-4.57 15.18,-12.15l0,-6.86zm0,-28.04c0,-9.75 -5.61,-16.24 -13.65,-16.24s-13.52,5.77 -13.52,16l0,6.98c0,10.23 5.48,16.36 13.52,16.36s13.65,-6.98 13.65,-16.6l0,-6.5z" class="st0"/>
   <path id="svg_5" fill="#FFFFFF" d="m229.83,85.29c-2.3,4.57 -9.06,8.18 -17.34,8.18c-15.94,0 -26.78,-11.91 -26.78,-30.08l0,-6.02c0,-17.93 10.71,-29.72 26.65,-29.72c8.54,0 14.79,3.61 17.47,8.06l0,-6.01l17.09,0l0,60.64c0,15.4 -12.63,27.31 -31.76,27.31l-19.9,0l0,-13.35l19.39,0c8.54,0 15.18,-4.57 15.18,-12.15l0,-6.86zm0,-28.04c0,-9.75 -5.61,-16.24 -13.65,-16.24c-8.03,0 -13.52,5.77 -13.52,16l0,6.98c0,10.23 5.48,16.36 13.52,16.36c8.03,0 13.65,-6.98 13.65,-16.6l0,-6.5z" class="st0"/>
   <path id="svg_6" fill="#FFFFFF" d="m267.96,67.72c-0.13,10.71 5.48,16.96 14.67,16.96c7.4,0 12.37,-3.85 13.52,-9.02l16.71,0c-1.66,13.11 -14.03,22.5 -29.84,22.5c-20.66,0 -31.88,-12.39 -31.88,-30.92l0,-9.26c0,-17.21 11.35,-30.32 31.25,-30.32c19.51,0 30.86,13.11 30.86,31.16l0,8.9l-45.29,0zm0.13,-12.39l28.18,0c-0.25,-7.94 -4.85,-14.44 -13.9,-14.44c-8.54,0 -14.15,5.3 -14.28,14.44z" class="st0"/>
   <path id="svg_7" fill="#FFFFFF" d="m367.57,45.46c-3.19,-1.2 -8.8,-2.41 -13.26,-2.41c-12.63,0 -19.38,6.74 -19.38,19.73l0,33.45l-16.96,0l0,-66.53l16.96,0l0,9.38c3.95,-6.38 11.35,-11.19 20.79,-11.19c5.48,0 9.05,0.36 11.86,1.44l0,16.13l-0.01,0z" class="st0"/>
  </g>
 </g>
</svg>

<?xml version="1.0" encoding="utf-8"?>
<!-- Generator: Adobe Illustrator 25.3.0, SVG Export Plug-In . SVG Version: 6.00 Build 0)  -->
<svg version="1.1" id="레이어_1" xmlns="http://www.w3.org/2000/svg" xmlns:xlink="http://www.w3.org/1999/xlink" x="0px"
	 y="0px" viewBox="0 0 467 118" style="enable-background:new 0 0 467 118;" xml:space="preserve">
<style type="text/css">
	.st0{fill:#FFFFFF;}
</style>
<g>
	<path class="st0" d="M-0.1,83.96l37.62-40.79H1.81V29.7h52.93c2.81,0,3.95,1.2,3.95,3.85v8.06L20.81,82.88H61.5v13.35H3.85
		c-2.81,0-3.95-1.2-3.95-3.85V83.96z"/>
	<path class="st0" d="M65.69,83.12h21.68V43.18H68.62V29.7h31.12c3.19,0,4.85,1.56,4.85,4.57v48.85h19v13.11h-57.9V83.12z
		 M103.69-0.02v15.76h-17.6V-0.02H103.69z"/>
	<path class="st0" d="M164.4,85.29c-2.3,4.57-9.05,8.18-17.34,8.18c-15.94,0-26.78-11.91-26.78-30.08v-6.02
		c0-17.93,10.71-29.72,26.65-29.72c8.54,0,14.79,3.61,17.47,8.06V29.7h17.09v60.64c0,15.4-12.63,27.31-31.76,27.31h-19.9V104.3
		h19.39c8.54,0,15.18-4.57,15.18-12.15V85.29z M164.4,57.25c0-9.75-5.61-16.24-13.65-16.24s-13.52,5.77-13.52,16v6.98
		c0,10.23,5.48,16.36,13.52,16.36s13.65-6.98,13.65-16.6V57.25z"/>
	<path class="st0" d="M229.83,85.29c-2.3,4.57-9.06,8.18-17.34,8.18c-15.94,0-26.78-11.91-26.78-30.08v-6.02
		c0-17.93,10.71-29.72,26.65-29.72c8.54,0,14.79,3.61,17.47,8.06V29.7h17.09v60.64c0,15.4-12.63,27.31-31.76,27.31h-19.9V104.3
		h19.39c8.54,0,15.18-4.57,15.18-12.15V85.29z M229.83,57.25c0-9.75-5.61-16.24-13.65-16.24c-8.03,0-13.52,5.77-13.52,16v6.98
		c0,10.23,5.48,16.36,13.52,16.36c8.03,0,13.65-6.98,13.65-16.6V57.25z"/>
	<path class="st0" d="M267.96,67.72c-0.13,10.71,5.48,16.96,14.67,16.96c7.4,0,12.37-3.85,13.52-9.02h16.71
		c-1.66,13.11-14.03,22.5-29.84,22.5c-20.66,0-31.88-12.39-31.88-30.92v-9.26c0-17.21,11.35-30.32,31.25-30.32
		c19.51,0,30.86,13.11,30.86,31.16v8.9H267.96z M268.09,55.33h28.18c-0.25-7.94-4.85-14.44-13.9-14.44
		C273.83,40.89,268.22,46.19,268.09,55.33z"/>
	<path class="st0" d="M367.57,45.46c-3.19-1.2-8.8-2.41-13.26-2.41c-12.63,0-19.38,6.74-19.38,19.73v33.45h-16.96V29.7h16.96v9.38
		c3.95-6.38,11.35-11.19,20.79-11.19c5.48,0,9.05,0.36,11.86,1.44V45.46z"/>
	<g>
		<path class="st0" d="M386.01,33.56h-0.13l-0.49,2.55h-4.03V0.47h5.1v9.44l-0.13,4.2c2.1-1.83,4.74-3.22,7.33-3.22
			c6.22,0,9.75,4.96,9.75,12.52c0,8.45-5.05,13.28-10.6,13.28C390.57,36.69,388.11,35.57,386.01,33.56z M398.08,23.5
			c0-5.14-1.65-8.32-5.77-8.32c-1.92,0-3.8,0.98-5.86,3v12.03c1.88,1.65,3.85,2.24,5.37,2.24C395.4,32.44,398.08,29.27,398.08,23.5z
			"/>
		<path class="st0" d="M406.4,23.86c0-8,5.46-12.97,11.22-12.97c6.53,0,10.02,4.7,10.02,11.67c0,0.98-0.09,2.01-0.22,2.59h-15.97
			c0.4,4.7,3.35,7.51,7.6,7.51c2.19,0,4.07-0.67,5.86-1.83l1.79,3.26c-2.28,1.52-5.1,2.59-8.32,2.59
			C411.72,36.69,406.4,31.95,406.4,23.86z M423.21,21.62c0-4.25-1.92-6.71-5.5-6.71c-3.09,0-5.81,2.37-6.31,6.71H423.21z"/>
		<path class="st0" d="M432.87,28.06V15.63h-3.58v-3.85l3.8-0.27l0.58-6.8h4.34v6.8h6.39v4.11h-6.39v12.48
			c0,2.95,1.03,4.47,3.58,4.47c0.85,0,1.92-0.27,2.64-0.58l0.94,3.8c-1.39,0.45-3.04,0.89-4.83,0.89
			C434.79,36.69,432.87,33.25,432.87,28.06z"/>
		<path class="st0" d="M447,29.58c0-5.28,4.47-8,14.71-9.12c-0.04-2.86-1.07-5.37-4.7-5.37c-2.59,0-5.01,1.16-7.11,2.5l-1.92-3.49
			c2.55-1.61,5.99-3.22,9.93-3.22c6.13,0,8.94,3.89,8.94,10.42v14.8h-4.2l-0.45-2.82h-0.13c-2.24,1.92-4.87,3.4-7.83,3.4
			C450,36.69,447,33.92,447,29.58z M461.71,29.76v-6.04c-7.29,0.89-9.75,2.73-9.75,5.5c0,2.41,1.65,3.4,3.85,3.4
			C457.96,32.62,459.7,31.59,461.71,29.76z"/>
	</g>
</g>
</svg>
